X:501
T: "Schlechte Besserung"
N: Z1181
O: Europa, Mitteleuropa, Deutschland, Niederrhein
R: Liebes - Lied
M: 2/4
L: 1/16
K: Bb
F2 | B2F2D2F2 | B2B2B2
B2 | c2B2A2B2 | c2c2c2
c2 | d2c2B2c2 | d4z2
B2 | B2d2d2f2 | f2e2e4 |
c2ccc2Bc | d2d2d2
c2 | B2B2c2c2 | f4z2
e2 | d2d2c2c2 | B4z2

@@@ Tune index: 10259
